!!!OTL: Die dienende Schwester Es war ein Markgraf an dem Rhein
!!!ARE: Europa, Mitteleuropa, Deutschland (), Provinz Sachsen
!!!YOR: 4, S. 108
!!    ????
!!!SCT: Q0075V
!!!YEM: Copyright 1995, estate of Helmut Schaffrath.
**kern
*ICvox
*Ivox
!! Mixed meters:  4/4; 3/2
*M4/4
*k[b-]
*F:
{4c
=1
4f
4f
4cc
4cc
=2
4.a
8b-
4a}
{4f
=3
4.g
8a
4g
4f
=4
*M3/2
4e
4d
4c}
{4b-
4a
4g
=5
*M4/4
4a
4dd
4cc
4b-
=6
2a
2g
=7
2f
4r}
==
!!!AGN: Ballade, Adelige als Dienstmagd, Tod; Kinder - Spiel, Tanz
!! Ein Taktstrich gemaess der Taktvorzeichnung weggelassen.
!!!ONB: ESAC (Essen Associative Code) Database: BALLADE
!!!AMT: irregular
!!!AIN: vox
!!!EED: Helmut Schaffrath
!!!EEV: 1.0
*-
